icon-svg/swr.svg

<svg xmlns="http://www.w3.org/2000/svg" viewBox="0 0 24 24"><path fill="#44739e" d="M16.453 9.054v1.916l1.03 1.03-1.03 1.03v1.916L19.375 12Zm-2.429 3.324a1.466 1.466 0 0 0 1.147-1.468c0-1.125-.73-1.574-1.983-1.574-.639 0-1.213.008-1.661.039v5.303h1.226v-2.072h.049l1.263 2.072h1.489l-1.12-1.699Zm-.963-.644a3 3 0 0 1-.308-.016V10.36a4 4 0 0 1 .339-.015c.577 0 .822.251.822.667 0 .447-.332.722-.853.722m6.018-2.68v1.916L20.107 12l-1.028 1.03v1.916L22 12Zm-9.62 3.604-.534-3.284H7.69l-.534 3.284-.534-3.284H5.388l.936 5.304h1.384l.6-3.405.6 3.405h1.384l.936-5.304H9.994Zm-5.355-1.206c-.426-.172-.79-.319-.79-.66 0-.3.245-.519.758-.519a4 4 0 0 1 1.01.166V9.358a5.3 5.3 0 0 0-.966-.095c-1.331 0-2.138.658-2.116 1.655.024 1.024.738 1.3 1.331 1.531.428.165.792.307.792.685s-.319.566-.769.566a3.6 3.6 0 0 1-1.132-.224l-.054 1.161a5 5 0 0 0 1.093.118c1.354 0 2.177-.763 2.177-1.793 0-.973-.734-1.262-1.334-1.51"/></svg>

<?xml version="1.0" encoding="UTF-8"?>
<svg width="24px" fill="#44739e" height="24px" viewBox="0 0 24 24" version="1.1" xmlns="http://www.w3.org/2000/svg" xmlns:xlink="http://www.w3.org/1999/xlink">
            <path d="m 16.452,9.053 v 1.917 l 1.03,1.03 -1.03,1.03 v 1.917 L 19.374,12 Z m -2.43,3.325 a 1.466,1.466 0 0 0 1.147,-1.468 c 0,-1.125 -0.73,-1.575 -1.983,-1.575 -0.639,0 -1.213,0.008 -1.661,0.039 v 5.305 h 1.226 V 12.606 H 12.8 l 1.263,2.073 h 1.49 l -1.121,-1.7 z M 13.059,11.734 A 2.875,2.875 0 0 1 12.751,11.718 V 10.36 c 0.071,-0.008 0.213,-0.015 0.339,-0.015 0.577,0 0.822,0.251 0.822,0.667 0,0.447 -0.332,0.722 -0.853,0.722 z m 6.019,-2.681 v 1.917 l 1.029,1.03 -1.029,1.03 v 1.917 L 22,12 Z M 9.456,12.658 8.922,9.373 H 7.687 L 7.153,12.658 6.619,9.373 H 5.384 l 0.937,5.306 h 1.384 l 0.6,-3.406 0.6,3.406 h 1.384 L 11.226,9.373 H 9.991 Z M 4.1,11.452 C 3.674,11.28 3.31,11.133 3.31,10.792 c 0,-0.3 0.245,-0.519 0.758,-0.519 a 3.965,3.965 0 0 1 1.01,0.166 V 9.357 A 5.334,5.334 0 0 0 4.112,9.262 c -1.331,0 -2.138,0.659 -2.116,1.656 0.024,1.024 0.738,1.3 1.331,1.531 0.428,0.165 0.792,0.307 0.792,0.685 C 4.119,13.512 3.8,13.7 3.35,13.7 A 3.574,3.574 0 0 1 2.218,13.476 l -0.054,1.162 a 4.928,4.928 0 0 0 1.093,0.118 c 1.354,0 2.177,-0.764 2.177,-1.794 C 5.434,11.989 4.7,11.7 4.1,11.452 Z"/>

</svg>
